X: 3
T: Fasten The Leg In Her
R: jig
M: 6/8
L: 1/8
K: Gmaj
|: ~B3 ~B3 | GB/c/d gdB | ~A3 AGA | Bee dBA | B2 B BAB | GB/c/d g2 g | efg eag |[1 fd^c d=cA :|[2 fd^c def || gbg faf | e/f/ge dBA | ~G3 AGA | B2 e def | g2 g f/g/af | e/f/ge dB/c/d | efg eag |[1 fd^c def :|[2 fd^c d3 |]


Tune 2838	Setting 2838

